icons/desktop/15/history-15.svg

<svg width="15" height="15" viewBox="0 0 15 15" fill="none" xmlns="http://www.w3.org/2000/svg">
<path d="M7.39551 4.5C7.8095 4.50026 8.14551 4.83595 8.14551 5.25V7.31445C8.14566 7.32482 8.15126 7.33322 8.15918 7.33789L9.48047 8.10059C9.83871 8.30769 9.96156 8.76644 9.75488 9.125C9.5479 9.48344 9.08911 9.60603 8.73047 9.39941L7.41016 8.6377C6.93644 8.36447 6.64567 7.85962 6.64551 7.31445V5.25C6.64551 4.83579 6.98129 4.5 7.39551 4.5Z" fill="black"/>
<path fill-rule="evenodd" clip-rule="evenodd" d="M7.5 1.25C10.946 1.25 13.75 4.054 13.75 7.5C13.75 10.946 10.946 13.75 7.5 13.75C4.054 13.75 1.25 10.946 1.25 7.5C1.25 4.054 4.054 1.25 7.5 1.25ZM7.5 2.75C4.881 2.75 2.75 4.881 2.75 7.5C2.75 10.119 4.881 12.25 7.5 12.25C10.119 12.25 12.25 10.119 12.25 7.5C12.25 4.881 10.119 2.75 7.5 2.75Z" fill="black"/>
</svg>

<!-- This Source Code Form is subject to the terms of the Mozilla Public
   - License, v. 2.0. If a copy of the MPL was not distributed with this
   - file, You can obtain one at http://mozilla.org/MPL/2.0/. -->
<svg xmlns="http://www.w3.org/2000/svg" width="15" height="15" fill="context-fill" fill-opacity="context-fill-opacity" viewBox="0 0 15 15">
    <path d="M7.396 4.5a.75.75 0 0 1 .75.75v2.064q0 .016.013.024L9.48 8.1a.75.75 0 0 1-.75 1.298l-1.32-.761a1.53 1.53 0 0 1-.764-1.324V5.25a.75.75 0 0 1 .75-.75" />
    <path fill-rule="evenodd" d="M7.5 1.25a6.257 6.257 0 0 1 6.25 6.25 6.257 6.257 0 0 1-6.25 6.25A6.257 6.257 0 0 1 1.25 7.5 6.257 6.257 0 0 1 7.5 1.25m0 1.5A4.756 4.756 0 0 0 2.75 7.5a4.756 4.756 0 0 0 4.75 4.75 4.756 4.756 0 0 0 4.75-4.75A4.756 4.756 0 0 0 7.5 2.75" clip-rule="evenodd" />
</svg>
